src/images/trainline-white.svg

<svg xmlns="http://www.w3.org/2000/svg" width="128" height="22" viewBox="0 0 128 22">
  <path fill="#FFFFFF" fill-rule="evenodd" d="M14.8181833,2.3328624 C17.470368,-0.3126816 21.7856706,-0.3126816 24.4376788,2.3328624 C27.0897753,4.9784944 27.0897753,9.2832784 24.4376788,11.9289104 L24.4376788,11.9289104 L15.1388449,21.2050784 C14.076295,22.2650384 12.353632,22.2649504 11.291082,21.2050784 L11.291082,21.2050784 L22.5137974,10.0097184 C23.2846203,9.2407744 23.7091992,8.2183904 23.7091992,7.1308864 C23.7091992,6.0433824 23.2846203,5.0209984 22.5137974,4.2520544 C20.9225748,2.6647104 18.3333756,2.6647104 16.742153,4.2520544 L16.742153,4.2520544 L9.36720055,11.6090304 L5.84001103,8.0904384 C5.30878015,7.5605024 5.30878015,6.7012704 5.84001103,6.1712464 C6.37133012,5.6413104 7.23266161,5.6413104 7.7639807,6.1712464 L7.7639807,6.1712464 L9.36720055,7.7705584 Z M121.390128,6.1429192 C125.467514,6.1429192 127.922274,8.7369832 127.922274,12.9911672 C127.922274,13.5099272 127.859818,14.0286872 127.859818,14.0909912 L127.859818,14.0909912 L118.394522,14.0909912 C118.456978,15.8341832 119.954781,17.1000632 121.722963,17.1000632 C123.387228,17.1000632 124.302547,16.2699592 124.739476,15.0870632 L124.739476,15.0870632 L127.755812,15.9793832 C127.069323,18.2621912 124.989036,20.1713512 121.722963,20.1713512 C118.082505,20.1713512 114.878888,17.5566072 114.878888,13.0949192 C114.878888,8.8821832 117.999319,6.1429192 121.390128,6.1429192 Z M57.8108516,6.1429368 C62.0129742,6.1429368 63.5731451,8.5086408 63.5731451,11.1649208 L63.5731451,11.1649208 L63.5731451,17.6602888 C63.5731451,18.3658728 63.6564201,19.2997288 63.7396069,19.7562728 L63.7396069,19.7562728 L60.4528033,19.7562728 C60.3903471,19.4242488 60.327979,18.6978968 60.327979,18.1791368 C59.6414897,19.2374248 58.3724284,20.1506008 56.416966,20.1506008 C53.5879101,20.1506008 51.8611892,18.2414408 51.8611892,16.1662248 C51.8611892,13.8004328 53.6086407,12.4722488 55.8137516,12.1403128 L55.8137516,12.1403128 L59.0798247,11.6630008 C59.828682,11.5591608 60.0782423,11.1856888 60.0782423,10.7291448 C60.0782423,9.7952888 59.3502037,9.0067208 57.8524008,9.0067208 C56.2921417,9.0067208 55.4185483,10.0027928 55.3144546,11.1649208 L55.3144546,11.1649208 L52.1316565,10.5008728 C52.3396675,8.4256568 54.2535807,6.1429368 57.8108516,6.1429368 Z M90.6705599,0.3115992 L90.6705599,15.2946552 C90.6705599,16.4360152 91.3154117,16.7680392 92.2099121,16.7680392 C92.3971926,16.7680392 92.5843848,16.7680392 92.8340334,16.7472712 L92.8340334,16.7472712 L92.8340334,19.7977912 C92.3347363,19.9015432 91.9187143,19.9637592 91.3570492,19.9637592 C88.7774655,19.9637592 87.1548383,18.4489272 87.1548383,15.8963992 L87.1548383,15.8963992 L87.1548383,0.3115992 L90.6705599,0.3115992 Z M38.0697935,2.594328 L38.0697935,6.546936 L40.7382098,6.546936 L40.7382098,9.7196 L38.0697935,9.7196 L38.0697935,15.258584 C38.0697935,16.41464 38.6088755,16.791104 39.6331402,16.791104 C40.0643352,16.791104 40.5495178,16.737336 40.7382098,16.68348 L40.7382098,16.68348 L40.7382098,19.64116 C40.4147253,19.775624 39.7679327,19.963768 38.7166743,19.963768 C36.1291512,19.963768 34.5119052,18.431248 34.5119052,15.87696 L34.5119052,15.87696 L34.5119052,9.7196 L32.1131622,9.7196 L32.1131622,6.546936 L32.7868604,6.546936 C34.1885089,6.546936 34.8353897,5.632616 34.8353897,4.449632 L34.8353897,4.449632 L34.8353897,2.594328 L38.0697935,2.594328 Z M79.8648017,6.1844464 C83.1516935,6.1844464 84.6494081,8.5293824 84.6494081,11.4347024 L84.6494081,11.4347024 L84.6494081,19.7770144 L81.0714068,19.7770144 L81.0714068,12.0573024 C81.0714068,10.5839184 80.3432799,9.4217904 78.6166473,9.4217904 C77.0563881,9.4217904 76.1410691,10.6253664 76.1410691,12.1610544 L76.1410691,12.1610544 L76.1410691,19.7562464 L72.5630677,19.7562464 L72.5630677,6.5372384 L76.0370635,6.5372384 L76.0370635,8.1766784 C76.8484653,6.8069584 78.429455,6.1844464 79.8648017,6.1844464 Z M108.352829,6.1844464 C111.639721,6.1844464 113.137524,8.5293824 113.137524,11.4347024 L113.137524,11.4347024 L113.137524,19.7770144 L109.559434,19.7770144 L109.559434,12.0573024 C109.559434,10.5839184 108.831308,9.4217904 107.104763,9.4217904 C105.544504,9.4217904 104.629185,10.6253664 104.629185,12.1610544 L104.629185,12.1610544 L104.629185,19.7562464 L101.051095,19.7562464 L101.051095,6.5372384 L104.525091,6.5372384 L104.525091,8.1766784 C105.336493,6.8069584 106.917483,6.1844464 108.352829,6.1844464 Z M50.1349977,6.43346 C50.4262837,6.43346 50.6966627,6.474996 50.96713,6.495676 L50.96713,6.495676 L50.96713,10.085812 C50.5510197,10.002828 50.2181844,9.98206 49.8854374,9.98206 C48.054711,9.98206 46.4737213,10.87438 46.4737213,13.717396 L46.4737213,13.717396 L46.4737213,19.75622 L42.8956317,19.75622 L42.8956317,6.537212 L46.3697158,6.537212 L46.3697158,8.508676 C47.1810294,6.765484 49.0116675,6.43346 50.1349977,6.43346 Z M69.8348946,6.537256 L69.8348946,19.756264 L66.256805,19.756264 L66.256805,6.537256 L69.8348946,6.537256 Z M98.3229662,6.537256 L98.3229662,19.756264 L94.7448766,19.756264 L94.7448766,6.537256 L98.3229662,6.537256 Z M1.99223928,2.3328712 C4.53662522,-0.2052248 8.6113654,-0.3079208 11.2801345,2.0239032 L11.2801345,2.0239032 L9.34928408,3.9500472 C7.74835782,2.6723752 5.3990153,2.7727832 3.91612074,4.2520632 C2.32489814,5.8394072 2.32489814,8.4222952 3.91612074,10.0097272 L3.91612074,10.0097272 L9.36719173,15.4474232 L18.6660256,6.1712552 C19.1972565,5.6413192 20.0586762,5.6413192 20.5899071,6.1712552 C21.121138,6.7011912 21.121138,7.5605112 20.5899071,8.0904472 L20.5899071,8.0904472 L9.36719173,19.2858072 L1.99223928,11.9289192 C0.707563887,10.6472872 -8.8215024e-06,8.9433432 -8.8215024e-06,7.1308952 C-8.8215024e-06,5.3184472 0.707563887,3.6144152 1.99223928,2.3328712 Z M60.0575118,13.8212008 L57.061906,14.2777448 C56.1465869,14.4022648 55.4185483,14.9211128 55.4185483,15.9378648 C55.4185483,16.7265208 55.9802134,17.4735528 57.1450928,17.4735528 C58.6637144,17.4735528 60.0575118,16.7472008 60.0575118,14.4022648 L60.0575118,14.4022648 L60.0575118,13.8212008 Z M121.410946,9.0274712 C119.559489,9.0274712 118.540165,10.4386392 118.456978,11.6422152 L118.456978,11.6422152 L124.364915,11.6422152 C124.323277,10.3141192 123.449684,9.0274712 121.410946,9.0274712 Z M68.0249516,0.0002992 C69.2522873,0.0002992 70.2300626,0.9756912 70.2300626,2.2208032 C70.2300626,3.4036112 69.273106,4.3997712 68.0249516,4.3997712 C66.8183465,4.3997712 65.8199289,3.4036112 65.8199289,2.2208032 C65.8199289,0.9756912 66.8183465,-0.0204688 68.0249516,0.0002992 Z M96.5339126,0.0002992 C97.7612482,0.0002992 98.7389354,0.9756912 98.7389354,2.2208032 C98.7389354,3.4036112 97.782067,4.3997712 96.5339126,4.3997712 C95.3273075,4.3997712 94.3288017,3.4036112 94.3288017,2.2208032 C94.3288017,0.9756912 95.306577,-0.0204688 96.5339126,0.0002992 Z"/>
</svg>

<svg xmlns="http://www.w3.org/2000/svg" width="128" height="22">
  <path fill="#FFF" fill-rule="evenodd" d="M14.818 2.333c2.652-2.646 6.968-2.646 9.62 0a6.781 6.781 0 010 9.596l-9.3 9.276a2.726 2.726 0 01-3.847 0L22.514 10.01a4.04 4.04 0 001.195-2.88 4.04 4.04 0 00-1.195-2.878 4.093 4.093 0 00-5.772 0L9.367 11.61 5.84 8.09a1.355 1.355 0 010-1.919 1.363 1.363 0 011.924 0l1.603 1.6zm106.572 3.81c4.078 0 6.532 2.594 6.532 6.848 0 .519-.062 1.038-.062 1.1h-9.465c.062 1.743 1.56 3.01 3.328 3.01 1.664 0 2.58-.831 3.016-2.014l3.017.892c-.687 2.283-2.767 4.192-6.033 4.192-3.64 0-6.844-2.614-6.844-7.076 0-4.213 3.12-6.952 6.511-6.952zm-63.58 0c4.203 0 5.763 2.366 5.763 5.022v6.495c0 .706.083 1.64.167 2.096h-3.287a10.77 10.77 0 01-.125-1.577c-.687 1.058-1.956 1.972-3.911 1.972-2.83 0-4.556-1.91-4.556-3.985 0-2.366 1.748-3.694 3.953-4.026l3.266-.477c.749-.104.998-.477.998-.934 0-.934-.728-1.722-2.226-1.722-1.56 0-2.433.996-2.538 2.158l-3.182-.664c.208-2.075 2.122-4.358 5.679-4.358zM90.67.312v14.983c0 1.141.645 1.473 1.54 1.473.187 0 .374 0 .624-.02v3.05c-.5.104-.915.166-1.477.166-2.58 0-4.202-1.515-4.202-4.068V.312h3.516zm-52.6 2.282v3.953h2.668V9.72H38.07v5.539c0 1.156.539 1.532 1.563 1.532.431 0 .917-.054 1.105-.108v2.958c-.323.135-.97.323-2.021.323-2.588 0-4.205-1.533-4.205-4.087V9.72h-2.399V6.547h.674c1.402 0 2.048-.914 2.048-2.097V2.594h3.235zm41.795 3.59c3.287 0 4.784 2.345 4.784 5.25v8.343h-3.578v-7.72c0-1.473-.728-2.635-2.454-2.635-1.56 0-2.476 1.203-2.476 2.74v7.594h-3.578V6.537h3.474v1.64c.811-1.37 2.392-1.993 3.828-1.993zm28.488 0c3.287 0 4.785 2.345 4.785 5.25v8.343h-3.579v-7.72c0-1.473-.728-2.635-2.454-2.635-1.56 0-2.476 1.203-2.476 2.74v7.594h-3.578V6.537h3.474v1.64c.811-1.37 2.392-1.993 3.828-1.993zm-58.218.25c.291 0 .562.041.832.062v3.59a5.266 5.266 0 00-1.082-.104c-1.83 0-3.411.892-3.411 3.735v6.04h-3.578V6.536h3.474V8.51c.811-1.744 2.642-2.076 3.765-2.076zm19.7.103v13.22h-3.578V6.536h3.578zm28.488 0v13.22h-3.578V6.536h3.578zM1.993 2.333c2.544-2.538 6.618-2.64 9.287-.31L9.35 3.95a4.094 4.094 0 00-5.434.302 4.069 4.069 0 000 5.758l5.451 5.437 9.299-9.276a1.363 1.363 0 011.924 0c.531.53.531 1.39 0 1.92L9.367 19.285l-7.375-7.357A6.733 6.733 0 010 7.13c0-1.813.708-3.517 1.992-4.798zM60.057 13.82l-2.996.457c-.915.124-1.643.643-1.643 1.66 0 .789.561 1.536 1.726 1.536 1.519 0 2.913-.727 2.913-3.072v-.58zm61.353-4.794c-1.852 0-2.87 1.412-2.954 2.615h5.908c-.042-1.328-.915-2.615-2.954-2.615zM68.025 0c1.227 0 2.205.976 2.205 2.22a2.186 2.186 0 01-2.205 2.18c-1.207 0-2.205-.996-2.205-2.18 0-1.244.998-2.24 2.205-2.22zm28.509 0c1.227 0 2.205.976 2.205 2.22a2.186 2.186 0 01-2.205 2.18c-1.207 0-2.205-.996-2.205-2.18 0-1.244.978-2.24 2.205-2.22z"/>
</svg>
